X: 1
T: reel des Deux Lisas
C: Louis Beaudoin
R: reel
F: http://mustrad.udenap.org/partitions/TQ016.jpg
Z: 2010 John Chambers <jc:trillian.mit.edu>
M: 4/4
L: 1/8
K: D
FG \
|: A2f2 A2FA | B2g2 f2ed | cdef gece | defd A2FG |
|  A2f2 A2FA | B2g2 f2ed | cdef gece |1 dfec d2FG :|2 dfec defg |
|: abaf defd | efge B2ed | cdef gece | defd A2fg |
|  abaf defd | efge B2ed | cdef gece |1 dfec defg :|2 dfec d2 |]
